X:1
T:Title
%%score [ ( 1 2 ) ( 3 4 ) ]
L:1/8
Q:1/4=240
M:4/4
K:F
V:1 treble nm="Midi_74"
V:2 treble 
V:3 bass nm="Midi_74"
V:4 bass 
V:1
"^Psalm 36""^R. Farrant" F8 | F4 G4 | A8 | c8 | B4 A4 | G4 G4 | F8 |] %7
V:2
 C8 | D4 E4 | F8 | F8 | F4 F4 | F4 E4 | F8 |] %7
V:3
 A,8 | A,4 C4 | C8 | C8 | D4 C4 | C4 C4 | A,8 |] %7
V:4
 F,8 | D,4 C,4 | F,8 | A,,8 | B,,4 F,4 | C,4 C,4 | F,8 |] %7

